symbols/web/remove_done/materialsymbolsrounded/remove_done_20px.svg

<svg xmlns="http://www.w3.org/2000/svg" height="20" width="20"><path d="m17.396 17.562-4.75-4.75-1.584 1.584q-.124.125-.291.187-.167.063-.333.063-.167 0-.323-.063-.157-.062-.303-.208l-3.5-3.5q-.25-.25-.25-.646t.25-.646q.25-.25.626-.25.374 0 .624.25l2.917 2.917.938-.938-8.125-8.104q-.25-.25-.25-.604t.25-.604q.25-.25.583-.25.333 0 .583.25l14.146 14.146q.25.25.25.583 0 .333-.25.583-.25.25-.604.25t-.604-.25Zm-2.313-7.187-1.25-1.25 3.542-3.542q.25-.25.635-.26.386-.011.615.26.271.229.271.615 0 .385-.271.635Zm-2.479-2.479-1.229-1.229 1.083-1.084q.25-.25.625-.26.375-.011.605.26.27.229.26.605-.01.374-.26.624ZM5.5 14.646q-.167 0-.323-.063-.156-.062-.302-.208l-3.5-3.5q-.25-.25-.25-.646t.25-.646q.25-.25.625-.25t.625.25L5.542 12.5l1.187 1.271-.604.604q-.146.146-.302.208-.156.063-.323.063Z"/></svg>

<svg xmlns="http://www.w3.org/2000/svg" height="20" width="20"><path d="M17.396 17.562 12.646 12.812 11.062 14.396Q10.938 14.521 10.771 14.583Q10.604 14.646 10.438 14.646Q10.271 14.646 10.115 14.583Q9.958 14.521 9.812 14.375L6.312 10.875Q6.062 10.625 6.062 10.229Q6.062 9.833 6.312 9.583Q6.562 9.333 6.938 9.333Q7.312 9.333 7.562 9.583L10.479 12.5L11.417 11.562L3.292 3.458Q3.042 3.208 3.042 2.854Q3.042 2.5 3.292 2.25Q3.542 2 3.875 2Q4.208 2 4.458 2.25L18.604 16.396Q18.854 16.646 18.854 16.979Q18.854 17.312 18.604 17.562Q18.354 17.812 18 17.812Q17.646 17.812 17.396 17.562ZM15.083 10.375 13.833 9.125 17.375 5.583Q17.625 5.333 18.01 5.323Q18.396 5.312 18.625 5.583Q18.896 5.812 18.896 6.198Q18.896 6.583 18.625 6.833ZM12.604 7.896 11.375 6.667 12.458 5.583Q12.708 5.333 13.083 5.323Q13.458 5.312 13.688 5.583Q13.958 5.812 13.948 6.188Q13.938 6.562 13.688 6.812ZM5.5 14.646Q5.333 14.646 5.177 14.583Q5.021 14.521 4.875 14.375L1.375 10.875Q1.125 10.625 1.125 10.229Q1.125 9.833 1.375 9.583Q1.625 9.333 2 9.333Q2.375 9.333 2.625 9.583L5.542 12.5L6.729 13.771L6.125 14.375Q5.979 14.521 5.823 14.583Q5.667 14.646 5.5 14.646Z"/></svg>
